public/istex-search.svg

<?xml version="1.0" encoding="utf-8"?>
<!-- Generator: Adobe Illustrator 27.5.0, SVG Export Plug-In . SVG Version: 6.00 Build 0)  -->
<svg version="1.1" id="Calque_1" xmlns="http://www.w3.org/2000/svg" xmlns:xlink="http://www.w3.org/1999/xlink" x="0px" y="0px"
	 viewBox="0 0 218.3 37.3" style="enable-background:new 0 0 218.3 37.3;" xml:space="preserve">
<style type="text/css">
	.st0{fill:#FFFFFF;}
	.st1{fill:#C3D331;}
</style>
<g>
	<path class="st0" d="M8.8,0.5v36.4H0V0.5H8.8z"/>
	<path class="st0" d="M33.9,11.4c-0.1-1.3-0.6-2.3-1.6-3c-0.9-0.7-2.3-1.1-4-1.1c-1.1,0-2.1,0.1-2.8,0.4s-1.3,0.7-1.7,1.2
		c-0.4,0.5-0.6,1.1-0.6,1.8c0,0.5,0.1,1,0.3,1.4c0.2,0.4,0.6,0.8,1.1,1.1c0.5,0.3,1,0.6,1.7,0.8c0.7,0.2,1.4,0.4,2.2,0.6l3.1,0.7
		c1.8,0.4,3.4,0.9,4.8,1.6c1.4,0.7,2.5,1.4,3.5,2.3c0.9,0.9,1.7,1.9,2.1,3.1s0.7,2.5,0.7,3.9c0,2.3-0.6,4.3-1.7,5.9
		c-1.1,1.6-2.8,2.9-4.9,3.8c-2.1,0.9-4.7,1.3-7.8,1.3c-3,0-5.7-0.5-8-1.4c-2.3-0.9-4-2.3-5.3-4.2c-1.3-1.9-1.9-4.2-1.9-7h8.4
		c0.1,1.2,0.4,2.1,0.9,2.9c0.6,0.8,1.3,1.4,2.3,1.8c1,0.4,2.1,0.6,3.4,0.6c1.2,0,2.2-0.2,3-0.5c0.8-0.3,1.5-0.8,1.9-1.3
		c0.4-0.6,0.7-1.2,0.7-2c0-0.7-0.2-1.3-0.6-1.8c-0.4-0.5-1.1-0.9-1.9-1.3c-0.9-0.4-2-0.7-3.3-1l-3.8-0.9c-3.1-0.7-5.6-1.9-7.4-3.5
		c-1.8-1.6-2.7-3.8-2.7-6.6c0-2.2,0.6-4.2,1.8-5.9c1.2-1.7,2.9-3,5.1-4C23.2,0.5,25.7,0,28.4,0c2.8,0,5.3,0.5,7.3,1.4
		c2.1,1,3.7,2.3,4.8,4c1.1,1.7,1.7,3.7,1.8,6H33.9z"/>
	<path class="st0" d="M46.1,7.6V0.5h30.7v7.1h-11v29.2h-8.7V7.6H46.1z"/>
	<path class="st1" d="M81.2,36.9V0.5h25.4v7.1H90v7.5h15.3v7.2H90v7.5h16.6v7.1H81.2z"/>
	<path class="st1" d="M120.9,0.5l6.6,11.5h0.3l6.7-11.5h9.8l-11,18.2l11.3,18.2h-10.1l-6.8-11.6h-0.3l-6.8,11.6h-10L122,18.7
		L111,0.5H120.9z"/>
	<path class="st0" d="M172.5,36.9h-10.7V0.5h11.3c3.5,0,6.4,0.7,8.9,2.2c2.5,1.4,4.4,3.5,5.7,6.2c1.3,2.7,2,5.9,2,9.7
		c0,3.8-0.7,7.1-2,9.8c-1.3,2.7-3.3,4.8-5.9,6.3C179.2,36.1,176.1,36.9,172.5,36.9z M165.1,33.9h7.1c3.1,0,5.7-0.6,7.8-1.8
		c2.1-1.2,3.7-3,4.7-5.3c1.1-2.3,1.6-5,1.6-8.2c0-3.1-0.5-5.8-1.6-8.1c-1-2.3-2.5-4-4.5-5.2c-2-1.2-4.5-1.8-7.4-1.8h-7.8V33.9z"/>
	<path class="st0" d="M197.7,36.9V0.5h3.3v33.4h17.3v3H197.7z"/>
</g>
</svg>

<?xml version="1.0" encoding="UTF-8" standalone="no"?>
<!-- Generator: Adobe Illustrator 27.5.0, SVG Export Plug-In . SVG Version: 6.00 Build 0)  -->

<svg
   version="1.1"
   id="Calque_1"
   x="0px"
   y="0px"
   viewBox="0 0 144.6 37.200002"
   xml:space="preserve"
   width="144.60001"
   height="37.200001"
   xmlns="http://www.w3.org/2000/svg"
   xmlns:svg="http://www.w3.org/2000/svg"><defs
   id="defs7" />
<style
   type="text/css"
   id="style1">
	.st0{fill:#FFFFFF;}
	.st1{fill:#C3D331;}
</style>
<g
   id="g7">
	<path
   class="st0"
   d="M 8.8,0.5 V 36.9 H 0 V 0.5 Z"
   id="path1" />
	<path
   class="st0"
   d="M 33.9,11.4 C 33.8,10.1 33.3,9.1 32.3,8.4 31.4,7.7 30,7.3 28.3,7.3 27.2,7.3 26.2,7.4 25.5,7.7 24.8,8 24.2,8.4 23.8,8.9 23.4,9.4 23.2,10 23.2,10.7 23.2,11.2 23.3,11.7 23.5,12.1 23.7,12.5 24.1,12.9 24.6,13.2 25.1,13.5 25.6,13.8 26.3,14 27,14.2 27.7,14.4 28.5,14.6 L 31.6,15.3 C 33.4,15.7 35,16.2 36.4,16.9 37.8,17.6 38.9,18.3 39.9,19.2 40.8,20.1 41.6,21.1 42,22.3 42.4,23.5 42.7,24.8 42.7,26.2 42.7,28.5 42.1,30.5 41,32.1 39.9,33.7 38.2,35 36.1,35.9 34,36.8 31.4,37.2 28.3,37.2 25.3,37.2 22.6,36.7 20.3,35.8 18,34.9 16.3,33.5 15,31.6 13.7,29.7 13.1,27.4 13.1,24.6 H 21.5 C 21.6,25.8 21.9,26.7 22.4,27.5 23,28.3 23.7,28.9 24.7,29.3 25.7,29.7 26.8,29.9 28.1,29.9 29.3,29.9 30.3,29.7 31.1,29.4 31.9,29.1 32.6,28.6 33,28.1 33.4,27.5 33.7,26.9 33.7,26.1 33.7,25.4 33.5,24.8 33.1,24.3 32.7,23.8 32,23.4 31.2,23 30.3,22.6 29.2,22.3 27.9,22 L 24.1,21.1 C 21,20.4 18.5,19.2 16.7,17.6 14.9,16 14,13.8 14,11 14,8.8 14.6,6.8 15.8,5.1 17,3.4 18.7,2.1 20.9,1.1 23.2,0.5 25.7,0 28.4,0 31.2,0 33.7,0.5 35.7,1.4 37.8,2.4 39.4,3.7 40.5,5.4 41.6,7.1 42.2,9.1 42.3,11.4 Z"
   id="path2" />
	<path
   class="st0"
   d="M 46.1,7.6 V 0.5 H 76.8 V 7.6 H 65.8 V 36.8 H 57.1 V 7.6 Z"
   id="path3" />
	<path
   class="st1"
   d="M 81.2,36.9 V 0.5 H 106.6 V 7.6 H 90 V 15.1 H 105.3 V 22.3 H 90 V 29.8 H 106.6 V 36.9 Z"
   id="path4" />
	<path
   class="st1"
   d="M 120.9,0.5 127.5,12 H 127.8 L 134.5,0.5 H 144.3 L 133.3,18.7 144.6,36.9 H 134.5 L 127.7,25.3 H 127.4 L 120.6,36.9 H 110.6 L 122,18.7 111,0.5 Z"
   id="path5" />
	
	
</g>
</svg>
